X: 5
T: Gallopede
R: reel
M: 4/4
L: 1/8
K: G
dc |: "G" B2 Bc "D" A2 AB | "G" GAGF G2 AB | "Am" cBcd edcB | "D" A2 AB A2 dc |
"G" B2 Bc "D" A2 AB | "Em" GAGF G2 AB | "Am" cBAG "D" FGAF | "G" G2 D2 G2 dc :| "G" B2 gf "C" e2 ed |
"D" dcBc A2 dc | "G" B2 gd "C" edcB | "D" A2 AB A2 dc | "G" B2 gf "C" e2 ed | "D" dcBc A2 dc |
"G" BdcB "D" AcBA | "G" G2 D2 G2 Bc || "G" d2 d2 d2 g2 | d2 d2 d2 g2 | d2 d2 "C" edcB |
"D" A2 A2 A2 Bc | "G" d2 d2 d2 g2 | d2 d2 d2 g2 | "C" edcB "D" dcBA | "G" G6 |]
W: Good harmonica/guitar tune.  From FFB,  some chords tweaked.
